icons/eye-17.svg

<svg width="16" height="17" viewBox="0 0 16 17" fill="none" xmlns="http://www.w3.org/2000/svg">
<path fill-rule="evenodd" clip-rule="evenodd" d="M3.16409 8.14814C3.47973 7.67328 4.11408 6.80924 4.97405 6.06964C5.83928 5.32551 6.87338 4.75778 8 4.75778C9.12661 4.75778 10.1608 5.32551 11.0259 6.06964C11.8859 6.80924 12.5203 7.67328 12.8359 8.14814C12.858 8.18131 12.858 8.21956 12.8359 8.25272C12.5203 8.72759 11.8859 9.59163 11.0259 10.3312C10.1608 11.0754 9.12661 11.6431 8 11.6431C6.87338 11.6431 5.83928 11.0754 4.97405 10.3312C4.11408 9.59163 3.47973 8.72759 3.16409 8.25272C3.14204 8.21956 3.14204 8.18131 3.16409 8.14814ZM8 3.61023C6.48419 3.61023 5.19169 4.36889 4.22579 5.1996C3.25462 6.03482 2.55329 6.99403 2.2084 7.51289C1.93053 7.93092 1.93053 8.46995 2.2084 8.88798C2.55329 9.40684 3.25462 10.366 4.22579 11.2013C5.19169 12.032 6.48419 12.7906 8 12.7906C9.51581 12.7906 10.8083 12.032 11.7742 11.2013C12.7453 10.366 13.4467 9.40684 13.7916 8.88798C14.0695 8.46995 14.0695 7.93092 13.7916 7.51289C13.4467 6.99403 12.7453 6.03482 11.7742 5.1996C10.8083 4.36889 9.51581 3.61023 8 3.61023ZM7.99999 9.7305C8.84502 9.7305 9.53006 9.04547 9.53006 8.20043C9.53006 7.3554 8.84502 6.67037 7.99999 6.67037C7.15496 6.67037 6.46992 7.3554 6.46992 8.20043C6.46992 9.04547 7.15496 9.7305 7.99999 9.7305Z" fill="#272431"/>
</svg>

<svg xmlns="http://www.w3.org/2000/svg" width="16" height="17" viewBox="0 0 16 17"><path fill-rule="evenodd" d="M3.164 8.148c.316-.475.95-1.339 1.81-2.078.865-.744 1.9-1.312 3.026-1.312 1.127 0 2.16.568 3.026 1.312.86.74 1.494 1.603 1.81 2.078a.09.09 0 010 .105c-.316.475-.95 1.339-1.81 2.078-.865.744-1.9 1.312-3.026 1.312-1.127 0-2.16-.568-3.026-1.312-.86-.74-1.494-1.603-1.81-2.078a.09.09 0 010-.105zM8 3.61c-1.516 0-2.808.759-3.774 1.59-.971.835-1.673 1.794-2.018 2.313a1.238 1.238 0 000 1.375c.345.519 1.047 1.478 2.018 2.313.966.831 2.258 1.59 3.774 1.59s2.808-.759 3.774-1.59c.971-.835 1.673-1.794 2.018-2.313a1.238 1.238 0 000-1.375c-.345-.519-1.047-1.478-2.018-2.313C10.808 4.369 9.516 3.61 8 3.61zm0 6.12a1.53 1.53 0 100-3.06 1.53 1.53 0 000 3.06z"/></svg>
